img/partly-cloudy-day.svg

<svg width="512" height="512" viewBox="0 0 512 512" xmlns="http://www.w3.org/2000/svg"><title>partly-cloudy-day</title><path d="M208 64c8.833 0 16-7.167 16-16V16c0-8.833-7.167-16-16-16s-16 7.167-16 16v32c0 8.833 7.167 16 16 16zm124.438 42.167l22.625-22.625c6.25-6.25 6.25-16.375 0-22.625s-16.375-6.25-22.625 0l-22.625 22.625c-6.25 6.25-6.25 16.375 0 22.625s16.375 6.25 22.625 0zM16 224h32c8.833 0 16-7.167 16-16s-7.167-16-16-16H16c-8.833 0-16 7.167-16 16s7.167 16 16 16zm336-16c0 8.833 7.167 16 16 16h32c8.833 0 16-7.167 16-16s-7.167-16-16-16h-32c-8.833 0-16 7.167-16 16zM83.54 106.167c6.252 6.25 16.377 6.25 22.626 0 6.25-6.25 6.25-16.375 0-22.625L83.54 60.917c-6.25-6.25-16.373-6.25-22.624 0-6.25 6.25-6.25 16.375 0 22.625l22.625 22.625zM400 256c-5.312 0-10.562.375-15.792 1.125-16.77-22.875-39.124-40.333-64.458-51.5C318.46 145 268.938 96 208 96c-61.75 0-112 50.25-112 112 0 17.438 4.334 33.75 11.5 48.438C47.875 258.875 0 307.812 0 368c0 61.75 50.25 112 112 112 13.688 0 27.084-2.5 39.71-7.333C180.665 497.917 217.5 512 256 512c38.542 0 75.333-14.083 104.29-39.333A110.825 110.825 0 0 0 400 480c61.75 0 112-50.25 112-112s-50.25-112-112-112zM208 128c39.812 0 72.562 29.167 78.708 67.25-10.02-2-20.25-3.25-30.708-3.25-45.938 0-88.5 19.812-118.375 53.25C131.688 234.083 128 221.542 128 208c0-44.188 35.812-80 80-80zm192 320c-17.125 0-32.916-5.5-45.938-14.667C330.584 461.625 295.624 480 256 480c-39.625 0-74.584-18.375-98.062-46.667C144.938 442.5 129.125 448 112 448c-44.188 0-80-35.812-80-80s35.812-80 80-80c7.75 0 15.062 1.458 22.125 3.54 2.812.793 5.667 1.418 8.312 2.522 4.375-8.562 9.875-16.396 15.98-23.75C181.79 242.188 216.56 224 256 224c10.125 0 19.834 1.458 29.25 3.71 10.562 2.498 20.542 6.29 29.834 11.29 23.29 12.375 42.416 31.542 54.457 55.063C378.94 290.188 389.21 288 400 288c44.188 0 80 35.812 80 80s-35.812 80-80 80z" fill="#D1D7BF" fill-rule="evenodd"/></svg>

<?xml version="1.0" encoding="UTF-8" standalone="no"?>
<svg width="512px" height="512px" viewBox="0 0 512 512" version="1.1" xmlns="http://www.w3.org/2000/svg" xmlns:xlink="http://www.w3.org/1999/xlink">
    <!-- Generator: Sketch 41.2 (35397) - http://www.bohemiancoding.com/sketch -->
    <title>partly-cloudy-day</title>
    <desc>Created with Sketch.</desc>
    <defs></defs>
    <g id="Page-1" stroke="none" stroke-width="1" fill="none" fill-rule="evenodd">
        <g id="partly-cloudy-day" fill="#1D1D1B">
            <path d="M208,64 C216.833,64 224,56.833 224,48 L224,16 C224,7.167 216.833,0 208,0 C199.167,0 192,7.167 192,16 L192,48 C192,56.833 199.167,64 208,64 Z M332.438,106.167 L355.063,83.542 C361.312,77.292 361.312,67.167 355.063,60.917 C348.813,54.667 338.688,54.667 332.438,60.917 L309.813,83.542 C303.563,89.792 303.563,99.917 309.813,106.167 C316.062,112.417 326.188,112.417 332.438,106.167 Z M16,224 L48,224 C56.833,224 64,216.833 64,208 C64,199.167 56.833,192 48,192 L16,192 C7.167,192 0,199.167 0,208 C0,216.833 7.167,224 16,224 Z M352,208 C352,216.833 359.167,224 368,224 L400,224 C408.833,224 416,216.833 416,208 C416,199.167 408.833,192 400,192 L368,192 C359.167,192 352,199.167 352,208 Z M83.541,106.167 C89.792,112.417 99.917,112.417 106.166,106.167 C112.417,99.917 112.417,89.792 106.166,83.542 L83.541,60.917 C77.291,54.667 67.167,54.667 60.916,60.917 C54.666,67.167 54.666,77.292 60.916,83.542 L83.541,106.167 Z M400,256 C394.688,256 389.438,256.375 384.208,257.125 C367.437,234.25 345.084,216.792 319.75,205.625 C318.459,145 268.938,96 208,96 C146.25,96 96,146.25 96,208 C96,225.438 100.334,241.75 107.5,256.438 C47.875,258.875 0,307.812 0,368 C0,429.75 50.25,480 112,480 C125.688,480 139.084,477.5 151.709,472.667 C180.666,497.917 217.5,512 256,512 C294.542,512 331.333,497.917 360.291,472.667 C372.916,477.5 386.312,480 400,480 C461.75,480 512,429.75 512,368 C512,306.25 461.75,256 400,256 Z M208,128 C247.812,128 280.562,157.167 286.708,195.25 C276.687,193.25 266.459,192 256,192 C210.062,192 167.5,211.812 137.625,245.25 C131.688,234.083 128,221.542 128,208 C128,163.812 163.812,128 208,128 Z M400,448 C382.875,448 367.084,442.5 354.062,433.333 C330.584,461.625 295.624,480 256,480 C216.375,480 181.416,461.625 157.938,433.333 C144.938,442.5 129.125,448 112,448 C67.812,448 32,412.188 32,368 C32,323.812 67.812,288 112,288 C119.75,288 127.062,289.458 134.125,291.541 C136.937,292.333 139.792,292.958 142.437,294.062 C146.812,285.5 152.312,277.666 158.416,270.312 C181.792,242.188 216.562,224 256,224 C266.125,224 275.834,225.458 285.25,227.709 C295.812,230.208 305.792,234 315.084,239 C338.375,251.375 357.5,270.542 369.541,294.063 C378.938,290.188 389.209,288 400,288 C444.188,288 480,323.812 480,368 C480,412.188 444.188,448 400,448 Z" id="Shape"></path>
        </g>
    </g>
</svg>
